X: 106
T: Cantantibus organis – Andantino
C: Franciszek Walczyński
%%abc-version 2.0
%%abcx-abcm2ps-target-version 5.9.1 (29 Sep 2008)
%%abc-creator hum2abc beta
%%abcx-conversion-date 2021/10/04 07:38:39
%%abc-edited-by Andrzej Borzym
%%abc-edited-by Andrzej Gręziak
%%abcx-initial-encoding-date 2021-07-27
%%humdrum-veritas 2597756501
%%humdrum-veritas-data 1591462626
%%linebreak <none>
%%barnumbers 0
L: 1/4
M: C
N: Derived from pl-kozmzk--mzk-m-346--007_walczynski-franciszek--cantantibus-organis-andantino.krn
Q: "Lento."
%%staves {1 2}
V: 1 clef=treble
V: 2 clef=bass
K: G
[V:1] z4 | 
[V:2] .G,,.D,E,/F,/G,/A,/ | 
[V:1] z.DE/F/G/A/ | 
[V:2] B,2C/D/E/F/ | 
[V:1] BdcB | 
[V:2] GFED | 
[V:1] ABAG | 
[V:2] C2^C2 | 
[V:1] F2GA & z2zF | 
[V:2] x3D- & D=CB,D, | 
[V:1] Bc!accent!A2 & G2F2 | 
[V:2] D4 & G,,A,,D,/C,/B,,/A,,/ | 
[V:1] z4 | 
[V:2] .G,,.D,E,/F,/G,/A,/ | 
[V:1] z.DE/F/G/A/ | 
[V:2] B,2C/D/E/F/ | 
[V:1] BdcB | 
[V:2] GFED | 
[V:1] ABAG | 
[V:2] C2^C2 | 
[V:1] F2Gc & z2zE | 
[V:2] z2zC & D=CB,A, | 
[V:1] AB!fermata!G2 & F2G2 | 
[V:2] C2B,2 & D,2!fermata!G,,2 | 
[V:1] z4 | 
[V:2] B,,F,B,A, | 
[V:1] zB,BA | 
[V:2] G,3F, | 
[V:1] G3^G | 
[V:2] E,B,ED | 
[V:1] Aeag | 
[V:2] C2^C2 | 
[V:1] f4 | 
[V:2] DAd=c | 
[V:1] gfe^d | 
[V:2] BAGB | 
[V:1] e=dcB | 
[V:2] cBAG | 
[V:1] dcBA & AGFE | 
[V:2] FEDC & z4 | 
[V:1] dcB2 & G>FG2 | 
[V:2] D4 & B,A,G,F, | 
[V:1] cBA2 & G3F | 
[V:2] CDED/C/ & E,D,C,D, | 
[V:1] [G4D4]- | 
[V:2] B,4- & G,D,B,,D, | 
[V:1] G3!fermata!z & D3x ||  
[V:2] B,3!fermata!z & G,,3x ||  
[V:1]  [K:Bb] BAGD | 
[V:2]  [K:Bb] z4 | 
[V:1] !accent!E4 | 
[V:2] CB,A,G, | 
[V:1] DAdc | 
[V:2] ^F,4 | 
[V:1] BAG2 | 
[V:2] G,A,B,2 | 
[V:1] g=fed | 
[V:2] B,4 | 
[V:1] =fedc | 
[V:2] C2DE | 
[V:1] BAG^F | 
[V:2] DCB,A,/D,/ | 
[V:1] G4 | 
[V:2] B,,A,,G,,2 | 
[V:1] ADdc | 
[V:2] ^F,,4 | 
[V:1] BAG=F | 
[V:2] G,,A,,B,,=B,, | 
[V:1] EGed | 
[V:2] C,3D, | 
[V:1] cBAG | 
[V:2] E,4 | 
[V:1] ^F4 | 
[V:2] D,A,DC | 
[V:1] GAB=B | 
[V:2] B,A,G,F, | 
[V:1] cdec | 
[V:2] E,D,C,E, | 
[V:1] BAG^F | 
[V:2] D,D/C/B,A, | 
[V:1] GAB^c & z2G2 | 
[V:2] B,DGE | 
[V:1] [d4^F4] ||  
[V:2] !fermata!D4 ||  
[V:1]  [K:G] z4 | 
[V:2]  [K:G] .G,,.D,E,/F,/G,/A,/ | 
[V:1] z.DE/F/G/A/ | 
[V:2] B,2C/D/E/F/ | 
[V:1] BdcB | 
[V:2] GFED | 
[V:1] ABAG | 
[V:2] C2^C2 | 
[V:1] F2GA & z2zF | 
[V:2] x3D- & D=CB,D, | 
[V:1] Bc!accent!A2 & G2F2 | 
[V:2] D4 & G,,A,,D,/C,/B,,/A,,/ | 
[V:1] z4 | 
[V:2] .G,,.D,E,/F,/G,/A,/ | 
[V:1] zDE/F/G/A/ | 
[V:2] B,2C/D/E/F/ | 
[V:1] BdcB | 
[V:2] GFED | 
[V:1] ABAG | 
[V:2] C2^C2 | 
[V:1] F2Gc & z2zE | 
[V:2] x3C & D=CB,A, | 
[V:1] AB!fermata!G2 & F2G2 | 
[V:2] C2B,2 & D,2!fermata!G,,2 | 
[V:1] z4 | 
[V:2] B,,F,B,A, | 
[V:1] zB,BA | 
[V:2] G,3F, | 
[V:1] G3^G | 
[V:2] E,B,ED | 
[V:1] Aeag | 
[V:2] C2^C2 | 
[V:1] f4 | 
[V:2] DAd=c | 
[V:1] gfe^d | 
[V:2] BAGB | 
[V:1] e=dcB | 
[V:2] cBAG | 
[V:1] dcBA & AGFE | 
[V:2] FEDC & z4 | 
[V:1] dcB2 & G>FG2 | 
[V:2] D4 & B,A,G,F, | 
[V:1] cBA2 & G3F | 
[V:2] CDED/C/ & E,D,C,D,/^D,/ | 
[V:1] G3^G & E3E- | 
[V:2] B,3B, & E,3=D, | 
[V:1] A=GF2 & E3D/C/ | 
[V:2] C_B,A,2 & C,^C,D,2 | 
[V:1] B4- & B,CB,A, | 
[V:2] G,E,D,C, & G,,4- | 
[V:1] [B4B,4] ||  
[V:2] D,4 & !fermata!G,,4 ||  
[V:1] z4 | 
[V:2] .G,,.D,E,/F,/G,/A,/ | 
[V:1] zDE/F/G/A/ | 
[V:2] B,2C/D/E/F/ | 
[V:1] .B.de/f/g/a/ | 
[V:2] .G.F[K:clef=treble]cB/d/ | 
[V:1] b[d'a][e'2c'2] | 
[V:2] g[fd][g2c2][K:clef=bass] | 
[V:1] AB!accent!G2 & F2G2 | 
[V:2] C2B,2 & D,2G,,2- | 
[V:1] CDB,2 | 
[V:2] [A,2F,2]G,2 & G,,4- | 
[V:1] A,4 | 
[V:2] [G,2_E,2]F,2 & G,,4- | 
[V:1] !fermata!G,4 |]  
[V:2] [D,4B,,4G,,4] |]  


